X:3
T:Blind Ifan's
R:polka, march
O:Wales
Z: 1997 by John Chambers <jc@trillian.mit.edu>
M:2/4
L:1/16
K:D
|: d2cB A2G2 | F2G2 A2F2 | G2F2 G2E2 | F2D2 D4 \
| F3G A2F2 | G2A2 B2c2 | d4 c4 | d8 :|
|: f2d2 defd | e2c2 cdec | d2B2 BcdB | c2A2 A4 \
| f2d2 defd | e2c2 cdec | d2B2 BcdB | c2A2 A4 |
| B2G2 GABG | A2F2 FGAF | G2E2 EFGE | F2D2 D4 \
| F3G A2F2 | G2A2 B2c2 | d4 c4 | d8 :|
